!!!COM: Music21
!!!OTL: mazurka_Strange-Drums--The
!!!OMV: mazurka_Strange-Drums--The
**kern
*clefG2
*k[f#c#]
*D:
*M3/4
=1
4.f#
8e
8f#L
8aJ
=
4.f#
8e
8f#L
8aJ
=
4.e
8d
8eL
8f#J
=
4e
8dL
8eJ
8f#L
8aJ
=
4.f#
8e
8f#L
8aJ
=
4.f#
8e
8f#L
8aJ
=
4dd
8a
4dd
8ee
!!linebreak:original
=
8eeL
8ff#J
8eeL
8ddJ
8bL
8aJ
=||
*M3/4
4.f#
8e
8f#L
8aJ
=
4.f#
8e
8f#L
8aJ
=
4.e
8d
8eL
8f#J
=
4e
8dL
8eJ
8f#L
8aJ
=
4.f#
8e
8f#L
8aJ
=
4.f#
8e
8f#L
8aJ
!!linebreak:original
=
4dd
8a
4dd
8ee
=
8eeL
8ff#J
8aL
8bJ
8ddL
8eeJ
=||
4ff#
8ee
4ff#
8ee
=
4dd
8aL
8bJ
8ddL
8eeJ
=
4ff#
8ee
4ff#
8ee
=
8ddL
8bJ
8aL
8bJ
8f#L
8aJ
=
4ff#
8ee
4ff#
8ee
=
4dd
8bL
8aJ
8bL
8f#J
!!linebreak:original
=
4.e
8d
8eL
8f#J
=
4e
8aL
8bJ
8ddL
8eeJ
=||
4ff#
8ee
4ff#
8ee
=
4dd
8aL
8bJ
8ddL
8eeJ
=
4ff#
8ee
4ff#
8ee
=
8ddL
8bJ
8aL
8bJ
8f#L
8aJ
=
4ff#
8ee
4ff#
8ee
=
4dd
8bL
8aJ
8bL
8f#J
!!linebreak:original
=
4.e
8d
8eL
8f#J
=
4e
8dL
8eJ
8f#L
8aJ
=||
*-
